X: 100
T: Kid on the Mountain
M: 9/8
L: 1/8
R: Slip Jig
K: Edor
EDE FEF G2F|E3 B2A BGE|EDE FEF G2A|BAG FAG FED :|
BGB AFA G2D|GAB dge dBA|BGB AFA G2A|BAG FAG FED :|
gfg eBe e2f|gfg efg afd|gfg eBe ega|bag fag fed :|
eBB e2f g2f|eBB efg afd|eBB e2f g2a|bag fag fed :|
edB dBA G2D|GAB dge dBd|edB dBA G2A|BAG FAG FED :|
